assets/images/icon-stack.svg

<svg height="20" viewBox="0 0 20 20" width="20" xmlns="http://www.w3.org/2000/svg"><g fill="none" transform="translate(3 1)"><path d="m11.76 15.3v-4.533h1.68v6.233h-13.44v-6.233h1.68v4.533z" fill="#bcbbbb"/><path d="m3.02517578 10.8239421 7.59417972 1.1106445.0917382-1.3490153-7.42314448-1.44295248zm1.00682422-3.8539421 6.72 3.1733333.616-1.35999997-6.72-3.17333333zm1.904-3.34333333 5.712 4.81666666.952-1.13333333-5.712-4.81666667zm3.64-3.51333334-1.176.90666667 4.424 6.00666667 1.176-.90666667zm-6.776 14.05333337h7.84v-1.7h-7.84z" fill="#f48024"/></g></svg>

<svg xmlns="http://www.w3.org/2000/svg" width="20" height="20" viewBox="0 0 20 20">
  <g fill="none" transform="translate(3 1)">
    <polygon fill="#BCBBBB" points="11.76 15.3 11.76 10.767 13.44 10.767 13.44 17 0 17 0 10.767 1.68 10.767 1.68 15.3"/>
    <path fill="#F48024" d="M3.02517578,10.8239421 L10.6193555,11.9345866 L10.7110937,10.5855713 L3.28794922,9.14261882 L3.02517578,10.8239421 Z M4.032,6.97 L10.752,10.1433333 L11.368,8.78333333 L4.648,5.61 L4.032,6.97 L4.032,6.97 Z M5.936,3.62666667 L11.648,8.44333333 L12.6,7.31 L6.888,2.49333333 L5.936,3.62666667 L5.936,3.62666667 Z M9.576,0.113333333 L8.4,1.02 L12.824,7.02666667 L14,6.12 L9.576,0.113333333 L9.576,0.113333333 Z M2.8,14.1666667 L10.64,14.1666667 L10.64,12.4666667 L2.8,12.4666667 L2.8,14.1666667 Z"/>
  </g>
</svg>
